X:2
T:EXULTATION
M:2/2
L:1/4
B:The Harmonia Sacra, 25th ed. (Good Books, 1993, p. 219)
K:C
E G|A2A ^G|A2||B d|c2B A|E2||
w:Come a-way to the skies! My be-lov-ed a-rise,
E^G|A2A ^G|(AB) c d|He2||
w:And re-joice in the day_ thou wast born;
c d|e2 ed|e2||B d|c2 B A|E2||
w:On the fest-tiv-al day Come ex-ult-ing a-way,
E ^G|A2B d|c2B A|A4|]
w:And with sing-ing, to Zi-on re-turn.
